X:8
T: ALLE LEUTE SOLLENS WISSEN
N: E0619B
O: Europa, Mitteleuropa, Deutschland, Thueringen
R: Liebes - Lied, Abschied
M: 3/4
L: 1/8
K: F
FG | A2A2BG | GAA2
AB | c2BAGF | EGG2
GA | B3dcB | A2z2
cf | d4cB | A3BG2 | F2z2

@@@ Tune index: 4321
